public/protection.svg

<svg width="43" height="76" viewBox="0 0 43 76" fill="none" xmlns="http://www.w3.org/2000/svg">
<g clip-path="url(#clip0_9_86604)">
<g style="mix-blend-mode:color-dodge">
<path d="M17.7422 41.2734C17.7422 44.6305 19.2409 46.7282 21.5089 47.1593C19.3496 46.6472 17.9334 44.5813 17.9334 41.3219" fill="#1B69FF"/>
<path d="M17.7422 41.2734C17.7422 44.6305 19.2409 46.7282 21.5089 47.1593C19.3496 46.6472 17.9334 44.5813 17.9334 41.3219" fill="#1B69FF"/>
<path d="M20.0234 35.2305V35.3563L20.7696 36.029L20.855 35.9799L20.0234 35.2305Z" fill="#1B69FF"/>
<path d="M20.0234 35.2305V35.3563L20.7696 36.029L20.855 35.9799L20.0234 35.2305Z" fill="#1B69FF"/>
</g>
<path d="M10.242 24.4518C7.50827 21.497 4.39847 21.4659 3.29598 24.3795L0.389129 31.299C-0.713361 34.2141 0.606459 38.9729 3.3424 41.927L32.7575 73.7649C35.4913 76.719 38.6018 76.7508 39.7036 73.8372L42.6104 66.9178C43.7129 64.002 42.3931 59.2438 39.6572 56.2897M24.5411 47.1843C24.0302 46.853 23.6047 46.4061 23.2992 45.8799C22.9936 45.3537 22.8165 44.763 22.7822 44.1557C22.7822 43.0432 23.5697 42.5947 24.5411 43.1546C25.0519 43.4859 25.4773 43.9328 25.7827 44.459C26.0882 44.9852 26.2651 45.5759 26.2991 46.1832C26.2969 47.2906 25.5125 47.7398 24.5411 47.18V47.1843Z" fill="white"/>
<path d="M6.12423 23.7269C6.99347 23.7269 8.11628 24.3815 9.12967 25.4774L23.8431 41.4003H23.7517C23.4038 41.4062 23.0608 41.4836 22.744 41.6277C22.4273 41.7717 22.1437 41.9793 21.9108 42.2376C21.6779 42.4959 21.5008 42.7993 21.3904 43.1288C21.2801 43.4584 21.2388 43.8072 21.2693 44.1534C21.3047 45.0262 21.5522 45.8773 21.9903 46.6334C22.4285 47.3895 23.0442 48.0279 23.7844 48.4934C24.2512 48.7753 24.7847 48.9283 25.3302 48.9368C25.6782 48.9309 26.0211 48.8535 26.3379 48.7095C26.6546 48.5654 26.9382 48.3578 27.1711 48.0996C27.404 47.8413 27.5811 47.5379 27.6915 47.2083C27.8018 46.8787 27.8431 46.53 27.8126 46.1838C27.8124 46.0096 27.801 45.8357 27.7785 45.663L38.5463 57.316C39.7584 58.6636 40.6381 60.2758 41.1149 62.0235C41.5765 63.4291 41.6075 64.9403 41.204 66.3636L38.3065 73.2563C38.2992 73.2729 38.2928 73.2903 38.2862 73.3069C37.8371 74.4954 37.1113 74.4953 36.873 74.4953C36.0037 74.4953 34.881 73.8443 33.8676 72.7449L4.45169 40.9106C3.23946 39.5633 2.35979 37.9514 1.88306 36.2039C1.42134 34.7983 1.39028 33.2871 1.79393 31.8638L4.69141 24.9711C4.69865 24.9542 4.70546 24.9373 4.71174 24.9205C5.16158 23.732 5.88662 23.732 6.12493 23.732M10.2423 24.4554C8.86601 22.9653 7.38896 22.2188 6.12493 22.2188C5.48325 22.2277 4.86161 22.4433 4.35256 22.8335C3.84352 23.2238 3.4743 23.7677 3.29988 24.3844L0.393028 31.3039C-0.709462 34.219 0.61034 38.9779 3.34701 41.932L32.7578 73.7655C34.1341 75.2556 35.6111 76.0021 36.8752 76.0021C37.5168 75.9931 38.1385 75.7775 38.6475 75.3873C39.1566 74.997 39.5258 74.4531 39.7002 73.8364L42.6071 66.9169C43.7096 64.0011 42.3897 59.243 39.6538 56.2888M25.3266 47.4243C25.0471 47.414 24.7752 47.331 24.5377 47.1834C24.0269 46.8521 23.6014 46.4052 23.2958 45.879C22.9902 45.3528 22.8131 44.7621 22.7789 44.1548C22.7789 43.3671 23.1737 42.9128 23.7481 42.9128C24.0276 42.9231 24.2995 43.0061 24.5369 43.1537C25.0477 43.485 25.4731 43.9319 25.7786 44.4581C26.084 44.9844 26.2609 45.5751 26.295 46.1823C26.295 46.9701 25.901 47.4243 25.3266 47.4243Z" fill="#1B69FF"/>
<path d="M10.2415 24.4512C8.38929 22.4498 6.36614 21.7944 4.91016 22.4838C6.29732 22.1792 8.04454 22.8953 9.66206 24.6444L39.078 56.4779C41.8117 59.4327 43.1344 64.1909 42.0312 67.1059L39.1243 74.0254C38.8577 74.8453 38.2777 75.5269 37.5104 75.922C38.0256 75.7926 38.4985 75.532 38.8829 75.1658C39.2673 74.7996 39.5502 74.3401 39.7038 73.8323L42.6107 66.9128C43.7132 63.9978 42.3934 59.2396 39.6574 56.2847" fill="#1B69FF"/>
<path d="M5.0293 35.7013L7.35821 35.629L5.20676 32.5396L6.1659 31.6094L7.94632 35.1067L8.62002 32.1787L10.0065 33.6767L8.71711 35.9393L11.3422 37.203L11.2459 39.0656L8.68377 37.0605L9.62036 40.6649L8.18179 40.3372L7.83481 36.8377L5.80654 37.7737L5.0293 35.7013Z" fill="#1B69FF"/>
<path d="M6.16714 31.6083L5.20801 32.5386L7.35945 35.6279L5.03125 35.7003L5.81071 37.7698L7.83898 36.8338L8.18595 40.3333L9.62452 40.661L8.68723 37.0566L11.2493 39.0617L11.3463 37.199L8.72127 35.9354L10.0106 33.6728L8.62418 32.1747L7.95048 35.1028L6.17077 31.6055L6.16714 31.6083Z" fill="#1B69FF"/>
<path d="M11.5312 42.7247L13.8601 42.6524L11.7087 39.563L12.6685 38.6328L14.4483 42.1301L15.122 39.2021L16.5084 40.7001L15.219 42.9627L17.8441 44.2264L17.7471 46.089L15.1857 44.0846L16.123 47.6891L14.6844 47.3614L14.3375 43.8618L12.3092 44.7979L11.5312 42.7247Z" fill="#1B69FF"/>
<path d="M12.6671 38.6318L11.708 39.562L13.8594 42.6514L11.5312 42.7237L12.3106 44.7932L14.3389 43.8572L14.6859 47.3567L16.1244 47.6844L15.1878 44.08L17.7492 46.0844L17.8463 44.2218L15.2212 42.9588L16.5106 40.6962L15.1241 39.1982L14.4505 42.1263L12.6707 38.6289L12.6671 38.6318Z" fill="#1B69FF"/>
<path d="M18.0293 49.7521L20.3581 49.6798L18.2068 46.5904L19.1665 45.6602L20.9463 49.1575L21.62 46.2294L23.0064 47.7274L21.717 49.99L24.3421 51.2537L24.2451 53.1156L21.683 51.1113L22.6196 54.7156L21.1817 54.3879L20.834 50.8884L18.8058 51.8244L18.0293 49.7521Z" fill="#1B69FF"/>
<path d="M19.1658 45.6592L18.206 46.5894L20.3581 49.6788L18.0293 49.7511L18.8087 51.8205L20.8369 50.8846L21.1839 54.3841L22.6225 54.7118L21.6852 51.1074L24.2473 53.1117L24.3443 51.2499L21.7192 49.9861L23.0086 47.7236L21.6221 46.2255L20.9485 49.1536L19.1687 45.6562L19.1658 45.6592Z" fill="#1B69FF"/>
<path d="M24.5293 56.7755L26.8581 56.7032L24.7068 53.6138L25.6658 52.6836L27.4456 56.1809L28.1193 53.2529L29.5057 54.7509L28.2163 57.0135L30.8414 58.2772L30.7444 60.1391L28.1823 58.1347L29.1189 61.7391L27.6803 61.4115L27.3333 57.9119L25.3051 58.8479L24.5293 56.7755Z" fill="#1B69FF"/>
<path d="M25.6658 52.6826L24.706 53.6127L26.8581 56.7021L24.5293 56.7745L25.3087 58.844L27.3369 57.908L27.6839 61.4075L29.1225 61.7351L28.1852 58.1308L30.7473 60.1352L30.8443 58.2732L28.2192 57.0096L29.5086 54.7469L28.1221 53.2489L27.4485 56.177L25.6687 52.6797L25.6658 52.6826Z" fill="#1B69FF"/>
<path d="M31.0312 63.799L33.3601 63.7266L31.2088 60.6373L32.1678 59.707L33.9476 63.2044L34.6213 60.2763L36.0077 61.7743L34.7183 64.0369L37.3434 65.3006L37.2463 67.1625L34.6843 65.1573L35.6216 68.7618L34.183 68.4341L33.8353 64.9346L31.8071 65.8706L31.0312 63.799Z" fill="#1B69FF"/>
<path d="M32.1671 59.706L31.208 60.6363L33.3594 63.7257L31.0312 63.798L31.8107 65.8674L33.8389 64.9315L34.1859 68.431L35.6237 68.7587L34.6871 65.1542L37.2492 67.1586L37.3463 65.2967L34.7212 64.0331L36.0105 61.7705L34.6241 60.2724L33.9504 63.2005L32.1699 59.7031L32.1671 59.706Z" fill="#1B69FF"/>
<g style="mix-blend-mode:color-dodge">
<path d="M17.7422 41.2422C17.7422 44.0155 18.77 45.9207 20.4049 46.7461C18.8946 45.8657 17.9595 43.9974 17.9595 41.35" fill="#1B69FF"/>
<path d="M17.7422 41.2422C17.7422 44.0155 18.77 45.9207 20.4049 46.7461C18.8946 45.8657 17.9595 43.9974 17.9595 41.35" fill="#1B69FF"/>
</g>
<path d="M39.8889 9.35251C39.8889 9.33153 39.8889 9.31128 39.8845 9.2903C39.8802 9.2281 39.8737 9.16732 39.8664 9.10801C39.8664 9.09427 39.8664 9.07981 39.8614 9.06607C39.8519 8.99373 39.8396 8.92648 39.8252 8.85994C39.8252 8.84402 39.8179 8.82881 39.8143 8.81362C39.8022 8.7601 39.7889 8.70801 39.7744 8.65738L39.7607 8.6089C39.7419 8.5467 39.7209 8.48669 39.6984 8.42882L39.6897 8.40855C39.6687 8.3572 39.6462 8.308 39.6223 8.26388L39.5998 8.22048C39.5752 8.17418 39.5499 8.12936 39.5223 8.08596L39.5115 8.06785C39.4804 8.02011 39.447 7.97452 39.413 7.93112L39.3862 7.89859C39.3579 7.86459 39.3282 7.83133 39.2978 7.80022L39.2717 7.77272C39.235 7.73436 39.1963 7.69791 39.1558 7.66349L39.1319 7.64543C39.0967 7.61843 39.0605 7.59429 39.0233 7.57307L38.9871 7.55065C38.9632 7.53618 38.9392 7.52318 38.9146 7.51016L38.9364 7.49497L37.9903 7.01035C37.9555 6.98575 37.9179 6.96333 37.8831 6.94236L37.8447 6.92209C37.8194 6.90835 37.7948 6.89461 37.7723 6.88231L37.7252 6.86205C37.7035 6.85265 37.6818 6.8425 37.6593 6.83455V-0.00390625L35.5709 1.19973V6.82298L35.5449 7.19335C35.4777 7.23337 35.4113 7.27556 35.3456 7.31992C35.28 7.36429 35.2196 7.40674 35.1645 7.44725C34.931 7.61958 34.7106 7.80914 34.5054 8.01435C34.433 8.08668 34.3605 8.16698 34.2881 8.24582C34.2157 8.32466 34.1627 8.38538 34.1012 8.45844C34.0396 8.5315 33.9976 8.5836 33.9469 8.64797C33.8585 8.76033 33.7731 8.87561 33.6905 8.99375C33.6494 9.05307 33.6091 9.11285 33.5695 9.17313C33.4724 9.3178 33.3812 9.47187 33.295 9.62522C33.2563 9.69369 33.2186 9.76266 33.1819 9.8321C33.1327 9.92614 33.0842 10.0209 33.0371 10.1171C32.9147 10.3744 32.8073 10.6387 32.7155 10.9084C32.6701 11.0415 32.6295 11.1748 32.5938 11.3084C32.558 11.442 32.5266 11.5751 32.4996 11.7077C32.4339 12.0291 32.3999 12.3562 32.3982 12.6842C32.397 12.9042 32.4159 13.1238 32.4547 13.3403C32.5247 13.8642 32.8001 14.339 33.2204 14.6604L34.0563 15.0988C34.1766 15.205 34.3127 15.2919 34.4598 15.3562L34.4858 15.37V31.3413C34.4858 35.3653 31.6289 40.2855 28.1179 42.3094C27.5534 42.6915 26.9156 42.9523 26.2449 43.0755C25.5742 43.1986 24.8852 43.1814 24.2215 43.0248C24.1911 42.9987 24.16 42.972 24.1303 42.9445L24.0824 42.8996C24.0295 42.8483 23.9774 42.7947 23.9267 42.739L23.9071 42.7166C23.8627 42.6684 23.8197 42.6163 23.7782 42.5604L23.7354 42.5039C23.6978 42.4528 23.6609 42.4005 23.6246 42.347L23.5978 42.3079C23.5551 42.2421 23.5145 42.1741 23.4747 42.1047L23.4421 42.0446C23.4122 41.9892 23.3832 41.9323 23.3552 41.8739C23.345 41.853 23.3349 41.8327 23.3248 41.811C23.2893 41.7386 23.2559 41.6584 23.2248 41.5788C23.219 41.5643 23.2139 41.5484 23.2081 41.5339C23.182 41.4664 23.1579 41.3972 23.1357 41.3264L23.111 41.254C23.0869 41.1774 23.0642 41.0992 23.0429 41.0196L23.0343 40.9878C23.0111 40.8981 22.9908 40.8063 22.9712 40.7122C22.9662 40.6862 22.9611 40.6602 22.956 40.6341C22.9415 40.5584 22.9283 40.4815 22.9162 40.4034C22.9162 40.3802 22.9089 40.3564 22.9053 40.3311C22.8916 40.232 22.8793 40.1321 22.8699 40.0294C22.8699 40.0084 22.8698 39.9867 22.864 39.965C22.8568 39.8801 22.8508 39.7938 22.8459 39.7061C22.8459 39.6767 22.8445 39.647 22.8416 39.6171C22.8373 39.5086 22.8344 39.4001 22.8344 39.2865V34.5602L23.027 34.4495L24.5482 34.8481L26.2447 33.8231L25.1328 33.0152L20.7467 29.8281V30.0147L19.6602 29.2263V39.8898C19.6602 42.8982 20.8633 44.8975 22.746 45.5897C22.8063 45.6379 22.8679 45.683 22.9307 45.725L22.9807 45.7575C23.0478 45.8024 23.1161 45.8451 23.1857 45.8856L23.2581 45.9253C23.3443 45.9738 23.4312 46.0194 23.5211 46.0614C23.6102 46.1026 23.7007 46.1395 23.7927 46.1742L23.8694 46.2024C23.9467 46.2299 24.025 46.2552 24.1042 46.2784L24.1607 46.2957C24.2573 46.3222 24.3553 46.3463 24.4548 46.368L24.5272 46.381C24.6078 46.396 24.6892 46.409 24.7713 46.4201L24.8539 46.431C24.9575 46.4426 25.0618 46.452 25.1683 46.457H25.2045C25.2769 46.457 25.3436 46.4621 25.4146 46.4621H25.5065H25.5681C25.6753 46.4592 25.7835 46.4529 25.8926 46.4433L25.9498 46.4375C26.0643 46.4266 26.1802 46.4129 26.2976 46.3941C26.4142 46.376 26.5322 46.3529 26.651 46.3275L26.709 46.3152C26.8239 46.2897 26.9398 46.2607 27.0567 46.2284L27.1248 46.2089C27.2436 46.1749 27.3631 46.1366 27.487 46.0968L27.5304 46.0816C27.6478 46.0406 27.7663 45.9965 27.8861 45.9492L27.9274 45.9333C28.0505 45.8834 28.1744 45.8299 28.299 45.7735L28.3714 45.7409C28.4946 45.6835 28.6187 45.6228 28.7437 45.5586L28.8075 45.5246C28.9386 45.4559 29.0697 45.385 29.2015 45.3076C30.1078 44.7767 30.9506 44.1445 31.7137 43.4233C32.1106 43.053 32.4953 42.6566 32.8647 42.2392C35.6977 39.0392 37.6564 34.5848 37.6564 30.7453V14.3906C37.9889 14.076 38.29 13.7298 38.5553 13.3569C39.3706 12.2633 39.8393 10.951 39.9012 9.58906C39.8969 9.5066 39.8933 9.42918 39.8889 9.35251Z" fill="#1B69FF"/>
</g>
<defs>
<clipPath id="clip0_9_86604">
<rect width="43" height="76" fill="white"/>
</clipPath>
</defs>
</svg>

<svg xmlns="http://www.w3.org/2000/svg" width="43" height="76" fill="none" viewBox="0 0 43 76"><g clip-path="url(#a)"><g fill="#1b69ff" style="mix-blend-mode:color-dodge"><path d="M17.742 41.273c0 3.357 1.499 5.455 3.767 5.886-2.16-.512-3.576-2.578-3.576-5.837"/><path d="M17.742 41.273c0 3.357 1.499 5.455 3.767 5.886-2.16-.512-3.576-2.578-3.576-5.837M20.023 35.23v.126l.747.673.085-.05z"/><path d="M20.023 35.23v.126l.747.673.085-.05z"/></g><path fill="#fff" d="M10.242 24.452c-2.734-2.955-5.844-2.986-6.946-.073L.389 31.3c-1.102 2.915.217 7.674 2.953 10.628l29.415 31.838c2.734 2.954 5.845 2.986 6.947.072l2.906-6.92c1.103-2.915-.217-7.673-2.953-10.627m-15.116-9.106a3.87 3.87 0 0 1-1.759-3.028c0-1.113.788-1.561 1.76-1.001a3.87 3.87 0 0 1 1.757 3.028c-.002 1.108-.787 1.557-1.758.997z"/><path fill="#1b69ff" d="M6.124 23.727c.87 0 1.992.654 3.006 1.75L23.843 41.4h-.091a2.54 2.54 0 0 0-2.362 1.729 2.5 2.5 0 0 0-.12 1.024 5.38 5.38 0 0 0 2.514 4.34c.467.282 1 .435 1.546.444a2.54 2.54 0 0 0 2.362-1.729c.11-.33.151-.678.12-1.024q0-.261-.034-.521l10.768 11.653a11.6 11.6 0 0 1 2.569 4.707 7.42 7.42 0 0 1 .089 4.34l-2.898 6.893-.02.05c-.449 1.19-1.175 1.19-1.413 1.19-.87 0-1.992-.652-3.005-1.751L4.452 40.91a11.6 11.6 0 0 1-2.569-4.707 7.4 7.4 0 0 1-.09-4.34l2.898-6.893q.011-.026.02-.05c.45-1.189 1.176-1.189 1.414-1.189m4.117.723c-1.376-1.49-2.853-2.236-4.117-2.236A2.98 2.98 0 0 0 3.3 24.384l-2.907 6.92c-1.102 2.915.217 7.674 2.954 10.628l29.41 31.834c1.377 1.49 2.854 2.236 4.118 2.236a2.98 2.98 0 0 0 2.825-2.166l2.907-6.92c1.103-2.915-.217-7.673-2.953-10.627m-14.327-8.865a1.6 1.6 0 0 1-.79-.24 3.87 3.87 0 0 1-1.758-3.03c0-.787.395-1.241.97-1.241.279.01.55.093.788.24a3.87 3.87 0 0 1 1.758 3.03c0 .787-.394 1.241-.968 1.241"/><path fill="#1b69ff" d="M10.242 24.451c-1.853-2.001-3.876-2.657-5.332-1.967 1.387-.305 3.135.411 4.752 2.16l29.416 31.834c2.734 2.955 4.056 7.713 2.953 10.628l-2.907 6.92a3.27 3.27 0 0 1-1.614 1.896 3.08 3.08 0 0 0 2.194-2.09l2.907-6.92c1.102-2.914-.218-7.672-2.954-10.627M5.03 35.701l2.328-.072-2.151-3.09.959-.93 1.78 3.498.674-2.928 1.387 1.498-1.29 2.262 2.625 1.264-.096 1.863-2.562-2.006.936 3.605-1.438-.328-.347-3.5-2.028.937z"/><path fill="#1b69ff" d="m6.167 31.608-.959.93 2.151 3.09-2.328.072.78 2.07 2.028-.936.347 3.5 1.439.327-.938-3.604 2.562 2.005.097-1.863-2.625-1.264 1.29-2.262-1.387-1.498-.674 2.928-1.78-3.498zM11.531 42.725l2.33-.073-2.152-3.089.96-.93 1.78 3.497.673-2.928 1.386 1.498-1.289 2.263 2.625 1.263-.097 1.863-2.561-2.004.937 3.604-1.439-.328-.346-3.5-2.029.937z"/><path fill="#1b69ff" d="m12.667 38.632-.959.93 2.151 3.09-2.328.072.78 2.07 2.028-.937.347 3.5 1.438.327-.936-3.604 2.561 2.004.097-1.862-2.625-1.263 1.29-2.263-1.387-1.498-.674 2.928-1.78-3.497zM18.03 49.752l2.328-.072-2.151-3.09.96-.93 1.78 3.498.673-2.929 1.386 1.498-1.289 2.263 2.625 1.264-.097 1.862-2.562-2.005.937 3.605-1.438-.328-.348-3.5-2.028.936z"/><path fill="#1b69ff" d="m19.166 45.66-.96.93 2.152 3.089-2.329.072.78 2.07 2.028-.936.347 3.5 1.438.327-.937-3.605 2.562 2.005.097-1.862-2.625-1.264 1.29-2.262-1.387-1.498-.674 2.928-1.78-3.498zM24.53 56.776l2.328-.073-2.151-3.09.959-.93 1.78 3.498.673-2.928 1.387 1.498-1.29 2.263 2.625 1.263-.097 1.862-2.562-2.004.937 3.604-1.439-.328-.347-3.5-2.028.937z"/><path fill="#1b69ff" d="m25.666 52.683-.96.93 2.152 3.09-2.329.072.78 2.069 2.028-.936.347 3.5 1.438.327-.937-3.604 2.562 2.004.097-1.862-2.625-1.263 1.29-2.263-1.387-1.498-.674 2.928-1.78-3.497zM31.031 63.799l2.33-.072-2.152-3.09.959-.93 1.78 3.497.673-2.928 1.387 1.498-1.29 2.263 2.625 1.264-.097 1.861-2.562-2.005.938 3.605-1.439-.328-.348-3.5-2.028.937z"/><path fill="#1b69ff" d="m32.167 59.706-.959.93 2.151 3.09-2.328.072.78 2.07 2.028-.936.347 3.499 1.438.328-.937-3.605 2.562 2.005.097-1.862-2.625-1.264 1.29-2.263-1.387-1.498-.674 2.928-1.78-3.497z"/><g fill="#1b69ff" style="mix-blend-mode:color-dodge"><path d="M17.742 41.242c0 2.774 1.028 4.679 2.663 5.504-1.51-.88-2.446-2.749-2.446-5.396"/><path d="M17.742 41.242c0 2.774 1.028 4.679 2.663 5.504-1.51-.88-2.446-2.749-2.446-5.396"/></g><path fill="#1b69ff" d="M39.889 9.353q.001-.032-.005-.063a3 3 0 0 0-.018-.182q.001-.021-.005-.042a3 3 0 0 0-.036-.206c0-.016-.007-.031-.01-.046a3 3 0 0 0-.04-.157l-.014-.048a3 3 0 0 0-.063-.18l-.008-.02a2 2 0 0 0-.068-.145L39.6 8.22a2 2 0 0 0-.078-.134l-.01-.018a2 2 0 0 0-.099-.137l-.027-.032a2 2 0 0 0-.088-.099l-.026-.027a2 2 0 0 0-.116-.11l-.024-.018a1 1 0 0 0-.109-.072l-.036-.022-.072-.04.021-.016-.946-.485q-.053-.036-.107-.068l-.038-.02-.073-.04-.047-.02q-.032-.016-.066-.027V-.004L35.571 1.2v5.623l-.026.37a4 4 0 0 0-.38.254 6 6 0 0 0-.66.567c-.072.073-.145.153-.217.232a6 6 0 0 0-.341.402 7.6 7.6 0 0 0-.765 1.184q-.075.141-.145.285a7.4 7.4 0 0 0-.443 1.191 7 7 0 0 0-.094.4q-.099.483-.102.976-.001.331.057.656c.07.524.345.999.765 1.32l.836.439q.182.16.404.257l.026.014v15.971c0 4.024-2.857 8.944-6.368 10.968a4.93 4.93 0 0 1-3.896.716l-.092-.08-.048-.045a4 4 0 0 1-.155-.161l-.02-.022a2 2 0 0 1-.129-.157l-.043-.056-.11-.157-.027-.04a4 4 0 0 1-.123-.202l-.033-.06a4 4 0 0 1-.087-.171l-.03-.063a3 3 0 0 1-.1-.232l-.017-.045a3 3 0 0 1-.072-.208l-.025-.072a6 6 0 0 1-.068-.234l-.009-.032a6 6 0 0 1-.063-.276l-.015-.078a7 7 0 0 1-.04-.23c0-.024-.007-.048-.01-.073a7 7 0 0 1-.06-.625q0-.044-.004-.089a8 8 0 0 1-.008-.33V34.56l.193-.11 1.521.398 1.697-1.025-1.112-.808-4.386-3.187v.187l-1.087-.789V39.89c0 3.008 1.203 5.008 3.086 5.7q.09.072.185.135l.05.032q.1.068.205.129l.072.04a4 4 0 0 0 .535.248l.076.028q.117.042.235.076l.057.018q.144.039.294.072l.072.013q.12.022.244.04l.083.01q.155.018.314.026h.037c.072 0 .139.005.21.005h.153q.16-.005.325-.019l.057-.005a5.5 5.5 0 0 0 .701-.11l.058-.013q.172-.038.348-.087l.068-.02q.177-.05.362-.111l.043-.015q.176-.062.356-.133l.041-.016q.185-.075.372-.16l.072-.032q.186-.086.373-.182l.064-.034q.196-.103.393-.217c.907-.531 1.75-1.163 2.513-1.885q.596-.556 1.15-1.184c2.834-3.2 4.792-7.654 4.792-11.494V14.391q.5-.473.9-1.034A6.82 6.82 0 0 0 39.9 9.589z"/></g><defs><clipPath id="a"><path fill="#fff" d="M0 0h43v76H0z"/></clipPath></defs></svg>
